assets/sonr-icons/card.svg

<svg xmlns="http://www.w3.org/2000/svg" width="24" height="24" fill="none"><path fill="currentColor" d="M2.807 8c-.283 0-.424 0-.534-.058a.52.52 0 0 1-.22-.229c-.052-.112-.046-.248-.035-.519.03-.693.107-1.162.308-1.556a3 3 0 0 1 1.311-1.311C4.279 4 5.119 4 6.799 4h10.4c1.68 0 2.52 0 3.162.327a3 3 0 0 1 1.311 1.311c.201.395.278.863.308 1.556.012.272.017.407-.035.519a.5.5 0 0 1-.22.229c-.11.058-.25.058-.534.058zM2 10.8c0-.28 0-.42.055-.527a.5.5 0 0 1 .218-.218C2.38 10 2.52 10 2.8 10h18.4c.28 0 .42 0 .527.055a.5.5 0 0 1 .218.218c.055.107.055.247.055.527v4.4c0 1.68 0 2.52-.327 3.162a3 3 0 0 1-1.311 1.311C19.72 20 18.88 20 17.2 20H6.8c-1.68 0-2.52 0-3.162-.327a3 3 0 0 1-1.311-1.311C2 17.72 2 16.88 2 15.2zM7 14a1 1 0 0 0 0 2h4a1 1 0 0 0 0-2z"/></svg>

<svg xmlns="http://www.w3.org/2000/svg" width="24" height="24" fill="none" viewBox="0 0 24 24"><path fill="#000" d="M2.807 8C2.524 8 2.383 8 2.273 7.942C2.179 7.892 2.099 7.808 2.053 7.713C2.001 7.601 2.007 7.465 2.018 7.194C2.048 6.501 2.125 6.032 2.326 5.638C2.614 5.073 3.072 4.614 3.637 4.327C4.279 4 5.119 4 6.799 4H17.199C18.879 4 19.719 4 20.361 4.327C20.926 4.614 21.385 5.073 21.672 5.638C21.873 6.033 21.95 6.501 21.98 7.194C21.992 7.466 21.997 7.601 21.945 7.713C21.9 7.809 21.82 7.893 21.725 7.942C21.615 8 21.475 8 21.191 8H2.807ZM2 10.8C2 10.52 2 10.38 2.055 10.273C2.103 10.179 2.18 10.103 2.273 10.055C2.38 10 2.52 10 2.8 10H21.2C21.48 10 21.62 10 21.727 10.055C21.821 10.103 21.897 10.179 21.945 10.273C22 10.38 22 10.52 22 10.8V15.2C22 16.88 22 17.72 21.673 18.362C21.386 18.927 20.927 19.386 20.362 19.673C19.72 20 18.88 20 17.2 20H6.8C5.12 20 4.28 20 3.638 19.673C3.073 19.386 2.614 18.927 2.327 18.362C2 17.72 2 16.88 2 15.2V10.8ZM7 14C6.448 14 6 14.448 6 15C6 15.552 6.448 16 7 16H11C11.552 16 12 15.552 12 15C12 14.448 11.552 14 11 14H7Z"/></svg>
